svg/u1f44b.svg

<svg viewBox="0 0 128 128" xmlns="http://www.w3.org/2000/svg">
  <g id="handGroup">
    <radialGradient id="hand_1_" cx="-779.8681" cy="686.6891" gradientTransform="matrix(0.7071 -0.7071 -0.7071 -0.7071 1081.0488 -27.887)" gradientUnits="userSpaceOnUse" r="91.0084">
      <stop offset="0.3533" stop-color="#FFCA28"/>
      <stop offset="0.8723" stop-color="#FFB300"/>
    </radialGradient>
    <path id="hand" d="M59.53,107.44c-3.95-3.17-40.63-38.84-41.04-39.23c-1.62-1.62-2.64-3.3-2.92-4.84 c-0.29-1.6,0.2-3,1.5-4.3c1.21-1.21,2.69-1.85,4.28-1.85c1.94,0,3.93,0.92,5.59,2.59l16.63,15.98c0.29,0.28,0.67,0.42,1.04,0.42 c0.39,0,0.77-0.15,1.06-0.44c0.58-0.58,0.58-1.52,0.01-2.1L19.13,46.25c-2.66-2.66-3.91-6.73-0.75-9.89 c1.21-1.21,2.69-1.85,4.28-1.85c1.94,0,3.93,0.92,5.59,2.59l27.16,26.48c0.29,0.28,0.67,0.43,1.05,0.43s0.77-0.15,1.06-0.44 c0.58-0.58,0.59-1.52,0.01-2.11L24.91,28.02c-1.51-1.51-2.42-3.32-2.58-5.08c-0.15-1.79,0.48-3.45,1.83-4.8 c1.21-1.21,2.69-1.85,4.28-1.85c1.94,0,3.93,0.92,5.59,2.58L67.3,51.31c0.29,0.28,0.67,0.43,1.05,0.43s0.77-0.15,1.06-0.44 c0.58-0.58,0.59-1.52,0.01-2.11L45.26,24.36c-1.52-1.52-2.43-3.32-2.58-5.08c-0.15-1.79,0.48-3.45,1.83-4.8 c1.21-1.21,2.69-1.85,4.28-1.85c1.94,0,3.93,0.92,5.59,2.59c8.86,8.7,31.99,31.45,32.77,32.29c2.97,2.05,3.57-1.05,3.72-3.06 c0.17-2.34-2.51-10.51-0.95-17.86c2.62-9.77,10.17-8.17,10.34-8.09c4.14,1.94,3.35,4.84,1.88,10.67l-0.15,1.15 c-1.54,7.62,9.04,30.2,9.82,31.89c4.15,9.08,8.93,27.49-6.9,43.32C87.56,122.88,66.08,113.99,59.53,107.44z" fill="url(#hand_1_)"/>
    <g id="tone">
      <path d="M81.79,117.18c-10.64,0-19.69-5.09-23.26-8.62c-3.21-2.62-23.47-22.18-39.97-38.19 c-0.67-0.65-1.06-1.02-1.1-1.07c-1.87-1.87-3.03-3.82-3.36-5.66c-0.38-2.09,0.27-3.98,1.91-5.63c1.5-1.5,3.34-2.29,5.34-2.29 c2.35,0,4.71,1.08,6.65,3.03l16.61,15.96L18.05,47.29c-3.06-3.06-4.6-8.13-0.73-11.99c1.5-1.5,3.34-2.29,5.34-2.29 c2.35,0,4.71,1.08,6.65,3.03l27.14,26.46L23.84,29.07c-1.74-1.74-2.81-3.87-3-5.99c-0.19-2.26,0.59-4.33,2.26-6 c1.5-1.5,3.34-2.29,5.34-2.29c2.34,0,4.7,1.07,6.65,3.02l33.26,32.43L44.19,25.41c-1.75-1.75-2.82-3.88-3-6 c-0.19-2.25,0.59-4.32,2.26-5.99c1.5-1.5,3.34-2.29,5.34-2.29c2.35,0,4.71,1.08,6.65,3.03l7.21,7.07 c12.85,12.6,23.59,23.15,24.74,24.33c0.56,0.45,1.29,0.62,1.6,0.47c0.2-0.1,0.42-0.56,0.38-1.53c-0.06-1.7-0.3-3.81-0.55-6.04 c-0.5-4.48-1.02-9.12-0.37-12.18c1.42-5.31,4.21-7.56,6.29-8.53c2.86-1.32,5.63-0.86,6.16-0.61c5.2,2.44,4.17,6.52,2.75,12.18 l-0.03,0.14l-0.16,1.17c-1.04,5.12,4.3,19.27,9.64,30.8l0.08,0.16c3.57,7.8,10,27.81-7.2,45.01 C98.07,114.49,89.51,117.18,81.79,117.18z M21.35,58.72c-1.18,0-2.3,0.49-3.22,1.41c-0.95,0.95-1.28,1.87-1.08,2.97 c0.22,1.21,1.11,2.65,2.5,4.05c0.01,0.01,0.41,0.4,1.1,1.06c23.42,22.73,37.56,36.24,39.82,38.06l0.12,0.11 c5.52,5.52,26.03,15.32,43.26-1.91c15.87-15.87,9.9-34.4,6.59-41.64l-0.07-0.15c-3.44-7.42-11.26-25.42-9.87-32.6l0.23-1.5 c1.54-6.12,1.63-7.4-0.98-8.66c-0.77-0.14-6.29-0.81-8.4,7.06c-0.53,2.51-0.02,7.1,0.43,11.15c0.26,2.29,0.5,4.46,0.56,6.27 c0.1,2.85-1.25,3.94-2.07,4.34c-1.67,0.81-3.66,0.12-4.9-0.92l-0.13-0.12c-0.61-0.66-15.12-14.89-24.72-24.31l-7.22-7.09 c-2.46-2.47-5.63-2.88-7.76-0.75c-1.04,1.04-1.51,2.26-1.4,3.61c0.12,1.41,0.88,2.88,2.15,4.15L70.5,48.14 c1.14,1.16,1.14,3.06-0.02,4.22c-1.11,1.11-3.07,1.13-4.21,0.03L32.98,19.94c-2.46-2.46-5.64-2.87-7.76-0.74 c-1.04,1.04-1.51,2.26-1.4,3.61c0.13,1.41,0.89,2.89,2.15,4.14L58.6,60.41c1.15,1.16,1.14,3.06-0.02,4.22 c-1.11,1.11-3.07,1.13-4.21,0.03L27.2,38.17c-2.46-2.48-5.64-2.88-7.76-0.75c-2.59,2.59-1.21,5.8,0.75,7.77l26.57,27.44 c1.14,1.16,1.13,3.05-0.03,4.2c-1.12,1.12-3.06,1.13-4.2,0.04L25.9,60.89C24.5,59.48,22.89,58.72,21.35,58.72z" fill="#EDA600"/>
    </g>
    <path id="tone_1_" d="M84.76,46.54c-5.49,11.21-4.78,26.9,3.46,39.49c0.93,1.7,2.52,0.87,1.71-0.88 c-9.95-21.29,0.48-36.63,0.48-36.63L84.76,46.54z" fill="#EDA600"/>
  </g>
  <g>
    <path d="M63.17,4.5c3.02-0.79,6.24-0.72,9.37,0.01c3.11,0.75,6.22,2.33,8.53,4.91 c2.26,2.56,3.65,5.67,4.12,8.93c0.44,3.23,0.03,6.56-1.5,9.32c-0.18-3.1-0.72-5.95-1.63-8.58c-0.47-1.31-1.02-2.56-1.69-3.74 c-0.66-1.17-1.44-2.33-2.27-3.28c-1.69-1.95-3.98-3.47-6.55-4.65C68.97,6.2,66.16,5.3,63.17,4.5z" fill="#B0BEC5"/>
    <path d="M64,13.98c1.67-1.06,3.76-1.28,5.73-0.93c1.99,0.35,3.89,1.34,5.39,2.71 c1.49,1.39,2.55,3.14,3.21,4.96c0.32,0.91,0.48,1.87,0.63,2.8c0.05,0.96,0.05,1.92-0.1,2.88c-0.69-0.73-1.23-1.46-1.74-2.17 c-0.59-0.67-1.05-1.38-1.58-2.03c-1.04-1.29-2.05-2.46-3.14-3.5c-1.12-1.01-2.3-1.9-3.67-2.67C67.37,15.24,65.84,14.58,64,13.98z" fill="#90A4AE"/>
  </g>
  <g>
    <path d="M6.83,77.34c1.41,2.76,2.88,5.32,4.59,7.58c1.7,2.26,3.65,4.18,5.92,5.43 c1.1,0.61,2.41,1.14,3.69,1.54c1.29,0.41,2.63,0.69,4.01,0.88c2.76,0.34,5.66,0.28,8.73-0.19c-2.38,2.07-5.56,3.17-8.8,3.41 c-3.28,0.22-6.61-0.49-9.59-2.17c-3-1.71-5.2-4.43-6.58-7.32C7.42,83.59,6.68,80.46,6.83,77.34z" fill="#B0BEC5"/>
    <path d="M16.28,76.17c0.97,1.68,1.93,3.03,2.98,4.21c1.04,1.18,2.16,2.15,3.38,3.03 c1.24,0.85,2.6,1.6,4.08,2.35c0.74,0.38,1.53,0.68,2.31,1.12c0.81,0.35,1.63,0.72,2.49,1.25c-0.91,0.34-1.84,0.54-2.79,0.69 c-0.94,0.04-1.91,0.09-2.87-0.04c-1.92-0.26-3.84-0.93-5.52-2.1c-1.65-1.19-3.02-2.84-3.77-4.71 C15.81,80.11,15.59,78.03,16.28,76.17z" fill="#90A4AE"/>
  </g>
</svg>

<svg viewBox="0 0 128 128" xmlns="http://www.w3.org/2000/svg">
  <defs>
    <radialGradient id="hand_1_" cx="4.275444" cy="-58.015892" gradientTransform="matrix(0.7071 -0.7071 -0.7071 -0.7071 0 0)" gradientUnits="userSpaceOnUse" r="91.0084">
      <stop offset="0.3533" stop-color="#FFCA28"/>
      <stop offset="0.8723" stop-color="#FFB300"/>
    </radialGradient>
  </defs>
  <path id="hand" d="M59.53,107.44 C55.58,104.27 18.9,68.6 18.49,68.21 C16.87,66.59 15.85,64.91 15.57,63.37 C15.28,61.77 15.77,60.37 17.07,59.07 C18.28,57.86 19.76,57.22 21.35,57.22 C23.29,57.22 25.28,58.14 26.94,59.81 L43.57,75.79 C43.86,76.07 44.24,76.21 44.61,76.21 C45,76.21 45.38,76.06 45.67,75.77 C46.25,75.19 46.25,74.25 45.68,73.67 L19.13,46.25 C16.47,43.59 15.22,39.52 18.38,36.36 C19.59,35.15 21.07,34.51 22.66,34.51 C24.6,34.51 26.59,35.43 28.25,37.1 L55.41,63.58 C55.7,63.86 56.08,64.01 56.46,64.01 C56.84,64.01 57.23,63.86 57.52,63.57 C58.1,62.99 58.11,62.05 57.53,61.46 L24.91,28.02 C23.4,26.51 22.49,24.7 22.33,22.94 C22.18,21.15 22.81,19.49 24.16,18.14 C25.37,16.93 26.85,16.29 28.44,16.29 C30.38,16.29 32.37,17.21 34.03,18.87 L67.3,51.31 C67.59,51.59 67.97,51.74 68.35,51.74 C68.73,51.74 69.12,51.59 69.41,51.3 C69.99,50.72 70,49.78 69.42,49.19 L45.26,24.36 C43.74,22.84 42.83,21.04 42.68,19.28 C42.53,17.49 43.16,15.83 44.51,14.48 C45.72,13.27 47.2,12.63 48.79,12.63 C50.73,12.63 52.72,13.55 54.38,15.22 C63.24,23.92 86.37,46.67 87.15,47.51 C90.12,49.56 90.72,46.46 90.87,44.45 C91.04,42.11 88.36,33.94 89.92,26.59 C92.54,16.82 100.09,18.42 100.26,18.5 C104.4,20.44 103.61,23.34 102.14,29.17 L101.99,30.32 C100.45,37.94 111.03,60.52 111.81,62.21 C115.96,71.29 120.74,89.7 104.91,105.53 C87.56,122.88 66.08,113.99 59.53,107.44 Z" fill="url(#hand_1_)"/>
  <path d="M81.79,117.18 C71.15,117.18 62.1,112.09 58.53,108.56 C55.32,105.94 35.06,86.38 18.56,70.37 C17.89,69.72 17.5,69.35 17.46,69.3 C15.59,67.43 14.43,65.48 14.1,63.64 C13.72,61.55 14.37,59.66 16.01,58.01 C17.51,56.51 19.35,55.72 21.35,55.72 C23.7,55.72 26.06,56.8 28,58.75 L44.61,74.71 L18.05,47.29 C14.99,44.23 13.45,39.16 17.32,35.3 C18.82,33.8 20.66,33.01 22.66,33.01 C25.01,33.01 27.37,34.09 29.31,36.04 L56.45,62.5 L23.84,29.07 C22.1,27.33 21.03,25.2 20.84,23.08 C20.65,20.82 21.43,18.75 23.1,17.08 C24.6,15.58 26.44,14.79 28.44,14.79 C30.78,14.79 33.14,15.86 35.09,17.81 L68.35,50.24 L44.19,25.41 C42.44,23.66 41.37,21.53 41.19,19.41 C41,17.16 41.78,15.09 43.45,13.42 C44.95,11.92 46.79,11.13 48.79,11.13 C51.14,11.13 53.5,12.21 55.44,14.16 L62.65,21.23 C75.5,33.83 86.24,44.38 87.39,45.56 C87.95,46.01 88.68,46.18 88.99,46.03 C89.19,45.93 89.41,45.47 89.37,44.5 C89.31,42.8 89.07,40.69 88.82,38.46 C88.32,33.98 87.8,29.34 88.45,26.28 C89.87,20.97 92.66,18.72 94.74,17.75 C97.6,16.43 100.37,16.89 100.9,17.14 C106.1,19.58 105.07,23.66 103.65,29.32 L103.62,29.46 L103.46,30.63 C102.42,35.75 107.76,49.9 113.1,61.43 L113.18,61.59 C116.75,69.39 123.18,89.4 105.98,106.6 C98.07,114.49 89.51,117.18 81.79,117.18 Z M21.35,58.72 C20.17,58.72 19.05,59.21 18.13,60.13 C17.18,61.08 16.85,62 17.05,63.1 C17.27,64.31 18.16,65.75 19.55,67.15 C19.56,67.16 19.96,67.55 20.65,68.21 C44.07,90.94 58.21,104.45 60.47,106.27 L60.59,106.38 C66.11,111.9 86.62,121.7 103.85,104.47 C119.72,88.6 113.75,70.07 110.44,62.83 L110.37,62.68 C106.93,55.26 99.11,37.26 100.5,30.08 L100.73,28.58 C102.27,22.46 102.36,21.18 99.75,19.92 C98.98,19.78 93.46,19.11 91.35,26.98 C90.82,29.49 91.33,34.08 91.78,38.13 C92.04,40.42 92.28,42.59 92.34,44.4 C92.44,47.25 91.09,48.34 90.27,48.74 C88.6,49.55 86.61,48.86 85.37,47.82 L85.24,47.7 C84.63,47.04 70.12,32.81 60.52,23.39 L53.3,16.3 C50.84,13.83 47.67,13.42 45.54,15.55 C44.5,16.59 44.03,17.81 44.14,19.16 C44.26,20.57 45.02,22.04 46.29,23.31 L70.5,48.14 C71.64,49.3 71.64,51.2 70.48,52.36 C69.37,53.47 67.41,53.49 66.27,52.39 L32.98,19.94 C30.52,17.48 27.34,17.07 25.22,19.2 C24.18,20.24 23.71,21.46 23.82,22.81 C23.95,24.22 24.71,25.7 25.97,26.95 L58.6,60.41 C59.75,61.57 59.74,63.47 58.58,64.63 C57.47,65.74 55.51,65.76 54.37,64.66 L27.2,38.17 C24.74,35.69 21.56,35.29 19.44,37.42 C16.85,40.01 18.23,43.22 20.19,45.19 L46.76,72.63 C47.9,73.79 47.89,75.68 46.73,76.83 C45.61,77.95 43.67,77.96 42.53,76.87 L25.9,60.89 C24.5,59.48 22.89,58.72 21.35,58.72 Z" fill="#EDA600"/>
  <path id="tone_1_" d="M84.76,46.54 C79.27,57.75 79.98,73.44 88.22,86.03 C89.15,87.73 90.74,86.9 89.93,85.15 C79.98,63.86 90.41,48.52 90.41,48.52 L84.76,46.54 Z" fill="#EDA600"/>
  <path d="M63.17,4.5 C66.19,3.71 69.41,3.78 72.54,4.51 C75.65,5.26 78.76,6.84 81.07,9.42 C83.33,11.98 84.72,15.09 85.19,18.35 C85.63,21.58 85.22,24.91 83.69,27.67 C83.51,24.57 82.97,21.72 82.06,19.09 C81.59,17.78 81.04,16.53 80.37,15.35 C79.71,14.18 78.93,13.02 78.1,12.07 C76.41,10.12 74.12,8.6 71.55,7.42 C68.97,6.2 66.16,5.3 63.17,4.5 Z" fill="#B0BEC5"/>
  <path d="M64,13.98 C65.67,12.92 67.76,12.7 69.73,13.05 C71.72,13.4 73.62,14.39 75.12,15.76 C76.61,17.15 77.67,18.9 78.33,20.72 C78.65,21.63 78.81,22.59 78.96,23.52 C79.01,24.48 79.01,25.44 78.86,26.4 C78.17,25.67 77.63,24.94 77.12,24.23 C76.53,23.56 76.07,22.85 75.54,22.2 C74.5,20.91 73.49,19.74 72.4,18.7 C71.28,17.69 70.1,16.8 68.73,16.03 C67.37,15.24 65.84,14.58 64,13.98 Z" fill="#90A4AE"/>
  <path d="M6.83,77.34 C8.24,80.1 9.71,82.66 11.42,84.92 C13.12,87.18 15.07,89.1 17.34,90.35 C18.44,90.96 19.75,91.49 21.03,91.89 C22.32,92.3 23.66,92.58 25.04,92.77 C27.8,93.11 30.7,93.05 33.77,92.58 C31.39,94.65 28.21,95.75 24.97,95.99 C21.69,96.21 18.36,95.5 15.38,93.82 C12.38,92.11 10.18,89.39 8.8,86.5 C7.42,83.59 6.68,80.46 6.83,77.34 Z" fill="#B0BEC5"/>
  <path d="M16.28,76.17 C17.25,77.85 18.21,79.2 19.26,80.38 C20.3,81.56 21.42,82.53 22.64,83.41 C23.88,84.26 25.24,85.01 26.72,85.76 C27.46,86.14 28.25,86.44 29.03,86.88 C29.84,87.23 30.66,87.6 31.52,88.13 C30.61,88.47 29.68,88.67 28.73,88.82 C27.79,88.86 26.82,88.91 25.86,88.78 C23.94,88.52 22.02,87.85 20.34,86.68 C18.69,85.49 17.32,83.84 16.57,81.97 C15.81,80.11 15.59,78.03 16.28,76.17 Z" fill="#90A4AE"/>
</svg>
